img/icons/instruments/snare.svg

<svg fill="none" viewBox="0 0 16 16" xmlns="http://www.w3.org/2000/svg"><path d="m8 3c4.55 0 6.88 1.06 7 2.4l0.0044 0.103v5c0 1.54-3.12 2.5-7 2.5s-7-0.961-7-2.5v-5c0-1.38 2.33-2.5 7-2.5zm6 3.91c-0.281 0.169-0.621 0.323-1.02 0.459 0.0128 0.0421 0.0193 0.0875 0.0193 0.134v1c0 0.276-0.224 0.5-0.5 0.5s-0.5-0.224-0.5-0.5l0.0012-0.865c-0.584 0.128-1.25 0.227-2.01 0.289 0.00484 0.0247 0.00686 0.0505 0.00686 0.0768v1c0 0.276-0.224 0.5-0.5 0.5s-0.5-0.224-0.5-0.5v-1l0.00273-0.0182c-0.321 0.012-0.656 0.0182-1 0.0182-0.347 0-0.681-0.00619-1-0.0182l0.00174 0.0182v1c0 0.276-0.224 0.5-0.5 0.5s-0.5-0.224-0.5-0.5v-1l0.00686-0.0768c-0.754-0.0621-1.42-0.16-2.01-0.288l1.8e-4 0.865c0 0.276-0.224 0.5-0.5 0.5s-0.5-0.224-0.5-0.5v-1c0-0.0469 0.00646-0.0924 0.0186-0.135-0.398-0.135-0.738-0.289-1.02-0.457l1.2e-4 3.59c0 0.67 2.7 1.5 6 1.5 3.3 0 6-0.83 6-1.5l1e-3 -3.59zm-6-2.91c-3.88 0-6 0.823-6 1.5 0 0.677 2.12 1.5 6 1.5 3.88 0 6-0.823 6-1.5 0-0.677-2.12-1.5-6-1.5z" fill="#000"/></svg>

<svg xmlns="http://www.w3.org/2000/svg" viewBox="0 0 16 16" fill="none">
  <path fill="#000"
    d="M8 3c4.55 0 6.882 1.064 6.996 2.397L15 5.5v5c0 1.54-3.122 2.5-7 2.5s-7-.96-7-2.5v-5C1 4.12 3.333 3 8 3Zm6.001 3.907c-.28.169-.621.323-1.02.459.012.042.019.087.019.134v1a.5.5 0 0 1-1 0l.001-.865c-.584.128-1.253.226-2.008.289A.4.4 0 0 1 10 8v1a.5.5 0 0 1-1 0V8l.003-.018a26.82 26.82 0 0 1-2.005 0L7 8v1a.5.5 0 0 1-1 0V8l.007-.076A15.247 15.247 0 0 1 4 7.635V8.5a.5.5 0 0 1-1 0v-1a.5.5 0 0 1 .019-.135 5.24 5.24 0 0 1-1.02-.458L2 10.5c0 .67 2.698 1.5 6 1.5s6-.83 6-1.5l.001-3.593ZM8 4c-3.878 0-6 .823-6 1.5S4.122 7 8 7c3.877 0 6-.823 6-1.5S11.877 4 8 4Z" />
</svg>
